!! 00047] TT[KA
!! NN
!!!OTL: Luo yu da
!!!ARE: Asia, China,ÿGuangdong, Guangzhou
!! Ethnic Group: Han
!! II, 423
!!!SCT: C0254
!!!YEM: Copyright 1995, estate of Helmut Schaffrath.
**kern
*ICvox
*Ivox
*M2/4
*k[f#c#g#]
*A:
{4g#
4b
=1
2g#
=2
4b
4b
=3
4.ee
8cc#
=4
2b}
=5
{4a
4cc#
=6
4b
4e
=7
4a
8b
8a
=8
4f#
4a}
=9
{4a
4b
=10
4cc#
4b
=11
4a
4b
=12
2e}
=13
{4ee
4f#
=14
8cc#
8g#
4r
=15
4ee
16cc#
16ee
16cc#
16b
=16
2b}
=17
{4cc#
8b
8a
=18
4e
4b
=19
2a
=20
8cc#
4b
8a
=21
2e}
=22
{4g#
4f#
=23
8cc#
8b
4r
=24
4g#
4g#
=25
4ee
4r}
=26
{4cc#
8.b
16a
=27
4e
4f#
=28
2a
=29
2b
=30
2e}
==
!!!AGN: Xiaodiao, Erge. Shenghuo xiaochang
!! Vereinzelt Verzierungen.
!!!ONB: ESAC (Essen Associative Code) Database: CHINA
!!!AMT: simple duple
!!!AIN: vox
!!!EED: Helmut Schaffrath
!!!EEV: 1.0
*-
